assets/img/microillustration/dangerous.svg

<?xml version="1.0" encoding="UTF-8"?>
<svg version="1.1" viewBox="0 0 106 106" xmlns="http://www.w3.org/2000/svg">
<title>4. Elements_Microillustrations/Dangerous</title>
<g fill="none" fill-rule="evenodd">
<g transform="translate(11 17)">
<path d="m47.201 3.046 35.629 61.963c1.6518 2.8727 0.66206 6.5405-2.2106 8.1923-0.90993 0.52321-1.9412 0.79856-2.9908 0.79856h-71.258c-3.3137 0-6-2.6863-6-6 0-1.0496 0.27535-2.0809 0.79856-2.9908l35.629-61.963c1.6518-2.8727 5.3196-3.8624 8.1923-2.2106 0.91927 0.52858 1.682 1.2913 2.2106 2.2106z" fill="#F54B00"/>
<path d="m43.735 6.028 34.371 59.978c0.5492 0.95836 0.21751 2.1805-0.74085 2.7297-0.30271 0.17347-0.64553 0.26474-0.99442 0.26474h-68.742c-1.1046 0-2-0.89543-2-2 0-0.34889 0.091267-0.69171 0.26474-0.99442l34.371-59.978c0.5492-0.95836 1.7713-1.29 2.7297-0.74085 0.30839 0.17673 0.56412 0.43245 0.74085 0.74085z" fill="#fff"/>
<path d="m42.866 12.504 29.382 50.997c0.27572 0.47854 0.1113 1.09-0.36724 1.3657-0.15184 0.087482-0.32399 0.13353-0.49923 0.13353h-58.765c-0.55228 0-1-0.44772-1-1 0-0.17523 0.046047-0.34739 0.13353-0.49923l29.382-50.997c0.27572-0.47854 0.88716-0.64296 1.3657-0.36724 0.15262 0.087935 0.27931 0.21462 0.36724 0.36724z" fill="#FFEACF"/>
</g>
<path d="m48.459 66.565h12.398c1.4058 0 2.5526-1.147 2.5526-2.5526v-5.2718c0-0.0093062 0-0.018555-0.0045086-0.027803 0-0.0090173-0.0047399-0.023006-0.0047399-0.032254 0-0.0093063-0.0045086-0.018555-0.0045086-0.027803-0.0047398-0.0092484-0.0047398-0.018497-0.0092484-0.032312-0.0047399-0.0092484-0.0047399-0.018497-0.0092485-0.027745-0.0047398-0.0092485-0.0047398-0.018497-0.0092484-0.027745-0.0047399-0.0093063-0.0093063-0.018555-0.014046-0.032312-0.0045087-0.0092485-0.0092485-0.018497-0.013757-0.023237l-0.013757-0.027803c-0.0047398-0.0090173-0.0092484-0.013757-0.013988-0.023006-0.0045086-0.0092484-0.013815-0.018555-0.018555-0.027803-0.0045086-0.0092485-0.0092484-0.013757-0.018497-0.023006-0.0045086-0.0092484-0.013757-0.013988-0.018497-0.023294-0.0045086-0.0092485-0.013815-0.013757-0.018555-0.023006-0.0045087-0.0092485-0.013757-0.013757-0.018497-0.018497l-0.023006-0.023063c-0.0092484-0.0047398-0.013815-0.013988-0.023063-0.018497-0.0092485-0.0047398-0.018497-0.013988-0.027745-0.018497-0.0092484-0.0047398-0.013988-0.0093063-0.023294-0.014046-0.0092485-0.0045086-0.018497-0.0092485-0.027514-0.018497l-0.055548-0.027514-0.027803-0.014046c-0.0092484-0.0045086-0.018497-0.0045086-0.027745-0.0092484-0.0092484-0.0045086-0.023006-0.0092485-0.032312-0.0092485-0.0092484 0-0.018497-0.0045086-0.023237-0.0045086-0.013757-0.0047398-0.023006-0.0047398-0.037052-0.0047398-0.0045086 0-0.0092485-0.0045087-0.018497-0.0045087l-15.713-2.1688v-2.192c0-0.023006 0-0.046242-0.0045086-0.064797 0-0.0045086 0-0.0092484-0.0047399-0.018266 0-0.013988-0.0045086-0.027803-0.0045086-0.041791-0.0045086-0.013757-0.0045086-0.023006-0.0092485-0.036994 0-0.0093063-0.0045086-0.013815-0.0045086-0.023063l-0.013988-0.04156c0-0.0047399-0.0045664-0.013988-0.0045664-0.018497-0.0047398-0.013988-0.0092484-0.023237-0.018497-0.037052-0.0047398-0.0047398-0.0047398-0.013988-0.0092485-0.018497-0.0047398-0.0092484-0.0092484-0.018497-0.018497-0.027745-0.0047398-0.0092485-0.0093062-0.013815-0.014046-0.023063-0.0045086-0.0092484-0.0092484-0.013988-0.013757-0.023237-0.0047399-0.0092485-0.013757-0.018497-0.018497-0.027803l-0.04156-0.041502-0.013988-0.013815c-0.0092484-0.0092485-0.018497-0.018497-0.032312-0.027745-0.0047398-0.0047398-0.013988-0.0092484-0.018497-0.013988-0.0092485-0.0092484-0.018497-0.013815-0.027745-0.023063-0.013815-0.0092485-0.027803-0.018497-0.037052-0.023006-0.0045086-0.0047398-0.0092484-0.0047398-0.013757-0.0092484-0.018555-0.0092485-0.04156-0.018555-0.060057-0.027803l-3.4081-1.4336c-0.31907-0.1341-0.68439 0.013815-0.81855 0.33283-0.1341 0.3193 0.013815 0.68439 0.33283 0.81849l3.0243 1.2764v13.679c0 1.2947 0.97109 2.3674 2.2243 2.5293-0.22647 0.3793-0.36057 0.82323-0.36057 1.2949 0 1.3918 1.1328 2.5201 2.52 2.5201 1.3873 0 2.5203-1.1328 2.5203-2.5201 0-0.46242-0.12485-0.90178-0.34682-1.2717h5.6139c-0.22196 0.37462-0.34682 0.80924-0.34682 1.2717 0 1.3918 1.1328 2.5201 2.5201 2.5201s2.5203-1.1328 2.5203-2.5201-1.133-2.5203-2.5203-2.5203h-11.792c-0.72144 0-1.304-0.58728-1.304-1.304v-1.6925c0.37913 0.22196 0.82774 0.35156 1.304 0.35156z" fill="#000"/>
</g>
</svg>

<?xml version="1.0" encoding="UTF-8"?>
<svg width="106px" height="106px" viewBox="0 0 106 106" version="1.1" xmlns="http://www.w3.org/2000/svg" xmlns:xlink="http://www.w3.org/1999/xlink">
    <title>4. Elements_Microillustrations/Dangerous</title>
    <g id="4.-Elements_Microillustrations/Dangerous" stroke="none" stroke-width="1" fill="none" fill-rule="evenodd">
        <g id="Content" transform="translate(11.000000, 17.000000)">
            <path d="M47.2014378,3.04597881 L82.8302746,65.0091733 C84.4820626,67.881848 83.4923383,71.5496498 80.6196635,73.2014378 C79.7097327,73.7246481 78.6784668,74 77.6288368,74 L6.3711632,74 C3.0574547,74 0.371163197,71.3137085 0.371163197,68 C0.371163197,66.95037 0.646515117,65.9191041 1.16972538,65.0091733 L36.7985622,3.04597881 C38.4503502,0.17330403 42.118152,-0.816420259 44.9908267,0.835367742 C45.9100952,1.36394709 46.6728585,2.12671039 47.2014378,3.04597881 Z" id="Triangle" fill="#F54B00"></path>
            <path d="M43.7352625,6.02804327 L78.10623,66.0055836 C78.6554311,66.9639426 78.323743,68.1860615 77.365384,68.7352625 C77.0626768,68.9087331 76.7198568,69 76.3709675,69 L7.62903246,69 C6.52446296,69 5.62903246,68.1045695 5.62903246,67 C5.62903246,66.6511108 5.72029937,66.3082908 5.89376995,66.0055836 L40.2647375,6.02804327 C40.8139385,5.06968425 42.0360574,4.73799616 42.9944164,5.28719719 C43.3028098,5.46392634 43.5585334,5.71964987 43.7352625,6.02804327 Z" id="Triangle" fill="#FFFFFF"></path>
            <path d="M42.866471,12.503868 L72.24893,63.5007726 C72.5246457,63.9793114 72.3602251,64.5907554 71.8816863,64.866471 C71.729851,64.9539527 71.5576932,65 71.382459,65 L12.617541,65 C12.0652563,65 11.617541,64.5522847 11.617541,64 C11.617541,63.8247658 11.6635883,63.652608 11.75107,63.5007726 L41.133529,12.503868 C41.4092446,12.0253293 42.0206886,11.8609087 42.4992274,12.1366243 C42.651849,12.2245591 42.7785363,12.3512464 42.866471,12.503868 Z" id="Triangle" fill="#FFEACF"></path>
        </g>
        <path d="M48.4591368,66.5647066 L60.8566918,66.5647066 C62.2625149,66.5647066 63.4092656,65.4176669 63.4092656,64.0121328 L63.4092656,58.7403396 C63.4092656,58.7310334 63.4092656,58.7217849 63.404757,58.7125365 C63.404757,58.7035192 63.4000171,58.6895309 63.4000171,58.6802825 C63.4000171,58.6709762 63.3955085,58.6617278 63.3955085,58.6524793 C63.3907687,58.6432309 63.3907687,58.6339824 63.3862601,58.6201675 C63.3815202,58.6109191 63.3815202,58.6016706 63.3770116,58.5924222 C63.3722718,58.5831737 63.3722718,58.5739252 63.3677632,58.5646768 C63.3630233,58.5553705 63.3584569,58.5461221 63.3537171,58.532365 C63.3492084,58.5231165 63.3444686,58.5138681 63.33996,58.5091282 L63.3262029,58.4813251 C63.3214631,58.4723078 63.3169545,58.467568 63.3122146,58.4583195 C63.307706,58.4490711 63.2983997,58.4397648 63.2936599,58.4305164 C63.2891513,58.4212679 63.2844115,58.4167593 63.275163,58.4075108 C63.2706544,58.3982624 63.2614059,58.3935225 63.2566661,58.3842163 C63.2521575,58.3749678 63.2428512,58.3704592 63.2381114,58.3612108 C63.2336027,58.3519623 63.2243543,58.3474537 63.2196145,58.3427138 L63.1966089,58.3196505 C63.1873605,58.3149107 63.182794,58.3056622 63.1735456,58.3011536 C63.1642971,58.2964138 63.1550487,58.2871653 63.1458002,58.2826567 C63.1365518,58.2779169 63.1318119,58.2733504 63.1225057,58.2686106 C63.1132572,58.264102 63.1040088,58.2593621 63.0949915,58.2501137 L63.039443,58.2225995 L63.0116398,58.2085534 C63.0023914,58.2040448 62.9931429,58.2040448 62.9838944,58.199305 C62.974646,58.1947964 62.9608889,58.1900565 62.9515826,58.1900565 C62.9423342,58.1900565 62.9330857,58.1855479 62.9283459,58.1855479 C62.9145888,58.1808081 62.9053404,58.1808081 62.8912943,58.1808081 C62.8867857,58.1808081 62.8820458,58.1762994 62.8727974,58.1762994 L47.159671,56.0075366 L47.159671,53.8155369 C47.159671,53.7925314 47.159671,53.7692947 47.1551624,53.7507399 C47.1551624,53.7462313 47.1551624,53.7414915 47.1504225,53.7324742 C47.1504225,53.7184859 47.1459139,53.7046711 47.1459139,53.6906828 C47.1414053,53.6769257 47.1414053,53.6676772 47.1366654,53.653689 C47.1366654,53.6443827 47.1321568,53.6398741 47.1321568,53.6306256 L47.1181685,53.5890654 C47.1181685,53.5843255 47.1136021,53.5750771 47.1136021,53.5705685 C47.1088623,53.5565802 47.1043537,53.5473317 47.0951052,53.5335168 C47.0903654,53.528777 47.0903654,53.5195285 47.0858567,53.5150199 C47.0811169,53.5057715 47.0766083,53.496523 47.0673598,53.4872746 C47.06262,53.4780261 47.0580536,53.4734597 47.0533137,53.4642112 C47.0488051,53.4549628 47.0440653,53.4502229 47.0395567,53.4409745 C47.0348168,53.431726 47.0257996,53.4224776 47.0210597,53.4131713 L46.9794995,53.3716689 L46.9655112,53.357854 C46.9562628,53.3486055 46.9470143,53.3393571 46.9331994,53.3301086 C46.9284596,53.3253688 46.9192111,53.3208602 46.9147025,53.3161203 C46.905454,53.3068719 46.8962056,53.3023054 46.8869571,53.293057 C46.8731423,53.2838085 46.859154,53.2745601 46.8499055,53.2700514 C46.8453969,53.2653116 46.8406571,53.2653116 46.8361484,53.260803 C46.8175937,53.2515545 46.7945882,53.2422483 46.7760913,53.2329998 L43.3679775,51.7994314 C43.0489058,51.6653288 42.6835918,51.8132463 42.5494314,52.1322602 C42.4153288,52.4515631 42.5632463,52.8166459 42.8822602,52.9507485 L45.906563,54.227151 L45.906563,67.9056749 C45.906563,69.2004009 46.8776509,70.2731062 48.1308166,70.435012 C47.9043451,70.8143143 47.7702425,71.2582402 47.7702425,71.7299114 C47.7702425,73.1216884 48.9030049,74.25 50.2902733,74.25 C51.6775416,74.25 52.8105931,73.1171798 52.8105931,71.7299114 C52.8105931,71.2674886 52.6857389,70.8281292 52.463776,70.4582487 L58.0776464,70.4582487 C57.8556835,70.832869 57.7308294,71.2674886 57.7308294,71.7299114 C57.7308294,73.1216884 58.8636496,74.25 60.250918,74.25 C61.6381863,74.25 62.77118,73.1171798 62.77118,71.7299114 C62.77118,70.342643 61.6381863,69.2096494 60.250918,69.2096494 L48.4591368,69.2096494 C47.7376995,69.2096494 47.1551624,68.6223725 47.1551624,67.9056749 L47.1551624,66.2131497 C47.5342912,66.4351127 47.9828991,66.5647066 48.4591368,66.5647066 Z" id="Fill-1" fill="#000000"></path>
    </g>
</svg>
